other/myfiles.svg

<?xml version="1.0" encoding="UTF-8" standalone="no"?>
<svg width="48" height="48" viewBox="0 0 48 48" version="1.1" >
    <defs>
        <style>.cls-1{fill:#fff;}</style>
    </defs>
    <path
        class="cls-1"
        d="M 9.7109375 5.171875 C 7.1013423 5.171875 5 7.6846664 5 10.806641 L 5 37.193359 C 5 40.315334 7.1013423 42.828125 9.7109375 42.828125 L 38.289062 42.828125 C 40.898658 42.828125 43 40.315334 43 37.193359 L 43 10.806641 C 43 7.6846664 40.898658 5.171875 38.289062 5.171875 L 9.7109375 5.171875 z M 10.8125 7.9980469 L 21.052734 7.9980469 C 22.09225 8.0108489 23.158402 8.0006598 23.958984 8.8007812 C 24.560972 9.4056733 24.794571 10.397422 25.517578 10.871094 C 26.12267 11.267953 27.171414 11.197266 27.878906 11.197266 L 41.841797 11.197266 L 41.841797 13.757812 L 27.878906 13.757812 C 26.659413 13.754614 25.259653 13.803552 24.195312 13.089844 C 22.144209 11.716836 23.776465 10.263881 20.121094 10.238281 L 8.3300781 10.238281 L 8.3300781 40.001953 L 6.1582031 40.001953 L 6.1582031 12.798828 C 6.1644092 8.7822176 6.918196 8.0044469 10.8125 7.9980469 z M 15.15625 15.998047 L 37.1875 15.998047 C 40.827356 16.004448 41.835597 16.580325 41.841797 20.478516 L 41.841797 32.640625 C 41.832488 34.346483 41.705057 35.992129 40.708984 37.435547 C 39.110923 39.752699 36.920398 39.998753 34.394531 40.001953 L 12.363281 40.001953 L 12.363281 37.761719 L 34.394531 37.761719 C 38.136787 37.755318 39.663722 36.180098 39.669922 32.320312 L 39.669922 18.238281 L 15.15625 18.238281 L 15.15625 15.998047 z "
     id="rect6915" />
</svg>

<?xml version="1.0" encoding="UTF-8"?>
<svg version="1.1" viewBox="0 0 48 48" xmlns="http://www.w3.org/2000/svg">
    <defs>
        <style>.cls-1{fill:#fff;}</style>
    </defs>
    <path class="cls-1" d="m9.7109 5.1719c-2.6096 0-4.7109 2.5128-4.7109 5.6348v26.387c0 3.122 2.1013 5.6348 4.7109 5.6348h28.578c2.6096 0 4.7109-2.5128 4.7109-5.6348v-26.387c0-3.122-2.1013-5.6348-4.7109-5.6348h-28.578zm1.1016 2.8262h10.24c1.0395 0.012802 2.1057 0.0026129 2.9062 0.80273 0.60199 0.60489 0.83559 1.5966 1.5586 2.0703 0.60509 0.39686 1.6538 0.32617 2.3613 0.32617h13.963v2.5605h-13.963c-1.2195-0.003198-2.6193 0.04574-3.6836-0.66797-2.0511-1.373-0.41885-2.826-4.0742-2.8516h-11.791v29.764h-2.1719v-27.203c0.0062061-4.0166 0.75999-4.7944 4.6543-4.8008zm4.3438 8h22.031c3.6399 0.006401 4.6481 0.58228 4.6543 4.4805v12.162c-0.009309 1.7059-0.13674 3.3515-1.1328 4.7949-1.5981 2.3172-3.7886 2.5632-6.3145 2.5664h-22.031v-2.2402h22.031c3.7423-0.006401 5.2692-1.5816 5.2754-5.4414v-14.082h-24.514v-2.2402z"/>
</svg>
